Numix-GalliumOS/16/categories/preferences-system-directory.svg

<?xml version="1.0" encoding="UTF-8" standalone="no"?>
<svg
   xmlns:dc="http://purl.org/dc/elements/1.1/"
   xmlns:cc="http://creativecommons.org/ns#"
   xmlns:rdf="http://www.w3.org/1999/02/22-rdf-syntax-ns#"
   xmlns:svg="http://www.w3.org/2000/svg"
   xmlns="http://www.w3.org/2000/svg"
   xmlns:sodipodi="http://sodipodi.sourceforge.net/DTD/sodipodi-0.dtd"
   xmlns:inkscape="http://www.inkscape.org/namespaces/inkscape"
   width="16"
   height="16"
   viewBox="0 0 16 16"
   id="svg2"
   version="1.1"
   inkscape:version="0.91 r"
   sodipodi:docname="preferences-system-directory.svg">
  <metadata
     id="metadata16">
    <rdf:RDF>
      <cc:Work
         rdf:about="">
        <dc:format>image/svg+xml</dc:format>
        <dc:type
           rdf:resource="http://purl.org/dc/dcmitype/StillImage" />
        <dc:title />
      </cc:Work>
    </rdf:RDF>
  </metadata>
  <defs
     id="defs14" />
  <sodipodi:namedview
     pagecolor="#ffffff"
     bordercolor="#666666"
     borderopacity="1"
     objecttolerance="10"
     gridtolerance="10"
     guidetolerance="10"
     inkscape:pageopacity="0"
     inkscape:pageshadow="2"
     inkscape:window-width="1680"
     inkscape:window-height="1026"
     id="namedview12"
     showgrid="true"
     inkscape:zoom="29.5"
     inkscape:cx="2.6625199"
     inkscape:cy="3.4355234"
     inkscape:window-x="0"
     inkscape:window-y="24"
     inkscape:window-maximized="1"
     inkscape:current-layer="svg2">
    <inkscape:grid
       type="xygrid"
       id="grid4144" />
  </sodipodi:namedview>
  <path
     style="fill:#555555"
     inkscape:connector-curvature="0"
     id="path6"
     d="m 14,6.788462 0,2.4230765 C 14,9.371302 13.829142,9.5 13.622781,9.5 l -2.245562,0 C 11.168639,9.5 11,9.371302 11,9.2115385 L 11,6.788462 C 11,6.6309175 11.168639,6.5 11.377219,6.5 l 2.245562,0 C 13.829142,6.5 14,6.6309175 14,6.788462 Z" />
  <path
     style="fill:#555555"
     inkscape:connector-curvature="0"
     id="path8"
     d="m 9.5,6.788462 0,2.4230765 C 9.5,9.371302 9.331361,9.5 9.122782,9.5 l -2.245563,0 C 6.668639,9.5 6.5,9.371302 6.5,9.2115385 L 6.5,6.788462 C 6.5,6.6309175 6.668639,6.5 6.877219,6.5 l 2.245563,0 C 9.331361,6.5 9.5,6.6309175 9.5,6.788462 Z" />
  <path
     style="fill:#555555"
     inkscape:connector-curvature="0"
     id="path10"
     d="M 5,6.788462 5,9.2115385 C 5,9.371302 4.8291415,9.5 4.622781,9.5 l -2.2455623,0 C 2.168639,9.5 2,9.371302 2,9.2115385 L 2,6.788462 C 2,6.6309175 2.168639,6.5 2.3772187,6.5 l 2.2455623,0 C 4.8291415,6.5 5,6.6309175 5,6.788462 Z" />
</svg>

<svg xmlns="http://www.w3.org/2000/svg" viewBox="0 0 16 16">
 <path d="m 14 6.788 0 2.423 c 0 0.16 -0.171 0.288 -0.377 0.288 l -2.246 0 c -0.209 0 -0.377 -0.129 -0.377 -0.288 l 0 -2.423 c 0 -0.158 0.169 -0.288 0.377 -0.288 l 2.246 0 c 0.206 0 0.377 0.131 0.377 0.288" style="fill:#555"/>
 <path d="m 9.5 6.788 0 2.423 c 0 0.16 -0.169 0.288 -0.377 0.288 l -2.246 0 c -0.209 0 -0.377 -0.129 -0.377 -0.288 l 0 -2.423 c 0 -0.158 0.169 -0.288 0.377 -0.288 l 2.246 0 c 0.209 0 0.377 0.131 0.377 0.288" style="fill:#555"/>
 <path d="m 5 6.788 0 2.423 c 0 0.16 -0.171 0.288 -0.377 0.288 l -2.246 0 c -0.209 0 -0.377 -0.129 -0.377 -0.288 l 0 -2.423 c 0 -0.158 0.169 -0.288 0.377 -0.288 l 2.246 0 c 0.206 0 0.377 0.131 0.377 0.288" style="fill:#555"/>
</svg>
